X: 4199
M: 9/8
L: 1/8
K: D
|:\
|:\
faf f2d f2a | b2e e2d cBA |\
[1 faf f2d f2a | A2d d2A FED :|\
[2 faf efe d3 | A2d d2A FED |]


